X:1
T:Title
%%score { ( 1 4 ) | ( 2 3 ) }
L:1/8
M:4/4
K:C
V:1 treble nm="Grand Piano"
V:4 treble 
V:2 bass 
V:3 bass 
V:1
 z4 z2[Q:1/4=100] [CE]F | [G,EG]2 c2 B2 DE | F2 B2 A2 GG |[M:3/4] [EG][_E^F] [=EG]=F [CE]2 | %4
[M:1/4] [CE]F |[M:4/4] [G,EG]2 c2 B2 DE | F2 B2 A2 GG |[M:3/4] [EG][_E^F] [=EG]=F E2 |[M:1/4] EF | %9
[M:4/4] [EG][_E^F][=EG]=F [CE]2 [B,D]E | FEFE D2 CD | E2 GF[K:bass] [G,CE][B,D][E,A,C][G,B,] | %12
[M:2/4] [E,G,C]4 | [Ec][Ec] [Ec][Fd] |[M:4/4] [Ge][Ec][Fd][Ec] .[_EB]2 [=EG]2- | [CEG-]4 [DG]2 BB | %16
 B6 z2 |[M:2/4] [Ec]4 | [Ec][Ec] [Ec][Fd] |[M:4/4] [Ge][Ec][Fd][Ec] .[_EB]2 G,2 | C4 D2 BB | %21
 B6 z2 | [Ec]8 | [EG][EG][EG][_E^F] [=EG][D=F] [CE]2 | [EG][EG][EG][_E^F] [=EG]=F E2 | %25
 FF[DF]E FE D2 | FF[DF]E FE D2 | z4 z2 G2- | G8 | [EG][EG][EG][_E^F] [=EG][D=F] [CE]2 | %30
 [EG][EG][EG][_E^F] [=EG]=F E2 | FF[DF]E FE D2 | FF[DF]E FE D2 | CCEE FF G2- |[M:3/4] G6 | %35
[M:1/4] [CE]F |[M:4/4] [G,EG]2 c2 B2 DE | F2 B2 A2 GG |[M:3/4] [EG][_E^F] [=EG]=F E2 |[M:1/4] EF | %40
[M:4/4] [EG][_E^F][=EG]=F [CE]2 [B,D]E | FEFE D2 CD | E2 GF[K:bass] [G,CE][B,D][E,A,C][G,B,] | %43
[M:6/4] .[E,G,C]6 z6 |] %44
V:2
 z4 z2 z D | C,2 [E,G,C]2 [G,D]2 B,[K:treble]C | [G,B,D]2 [G,G]2 [G,F]2 [G,CE][K:bass][G,B,D] | %3
[M:3/4] [C,C]2 z D C,2 |[M:1/4] z D |[M:4/4] C,2 [E,G,C]2 [G,D]2 B,[K:treble]C | %6
 [G,B,D]2 [G,G]2 [G,F]2 [G,CE][K:bass][G,B,D] |[M:3/4] [C,C]2 z D [C,C]2 |[M:1/4] CD | %9
[M:4/4] [C,C]2 z D C,2 z[K:treble] C | DCDC[K:bass] [G,B,]2 ^G,[F,G,] | [G,C]2 B,D z F, z D, | %12
[M:2/4] C,4 | [C,C]2 [C,G,]2 |[M:4/4] [C,C]2 [B,,G,]2 z A C,2 | %15
 C,4 [G,B,]2[K:treble] [G,DG][G,DG] | G2 z2 z [G,DF]EE |[M:2/4][K:bass] [C,C]4 | [C,C]2 [C,G,]2 | %19
[M:4/4] [C,C]2 [B,,G,]2 z A C,2 | C,4 [G,B,]2[K:treble] [G,DG][G,DG] | G2 z2 z [G,DF]EE | [C,C]8 | %23
 [C,C]2 [C,G,]2 [C,C]2 [C,G,]2 | [C,C]2 [C,G,]2 z D [C,G,C]2 | D[K:treble]D z C DC [G,B,]2 | %26
 DD z C DC[K:bass] [G,B,]2 | A,[F,A,]CC CC B,2- | B,8 | [C,C]2 [C,G,]2 [C,C]2 [C,G,]2 | %30
 [C,C]2 [C,G,]2 z D [C,G,C]2 | D[K:treble]D z C DC [G,B,]2 | DD z C DC[K:bass] [G,B,]2 | %33
 A,[F,A,]CC CC z2 |[M:3/4] G,6 |[M:1/4] z D |[M:4/4] C,2 [E,G,C]2 [G,D]2 B,[K:treble]C | %37
 [G,B,D]2 [G,G]2 [G,F]2 [G,CE][K:bass][G,B,D] |[M:3/4] [C,C]2 z D [C,C]2 |[M:1/4] CD | %40
[M:4/4] [C,C]2 z D C,2 z[K:treble] C | DCDC[K:bass] [G,B,]2 ^G,[F,G,] | [G,C]2 B,D z F, z D, | %43
[M:6/4] .C,6 z6 |] %44
V:3
 z4 z2 G,2 | z4 z2 G,2[K:treble] | x7[K:bass] x |[M:3/4] z2 [C,G,]2 z2 |[M:1/4] G,2 | %5
[M:4/4] z4 z2 G,2[K:treble] | x7[K:bass] x |[M:3/4] z2 [C,G,]2 z2 |[M:1/4] [C,G,]2 | %9
[M:4/4] z2 [C,G,]2 z2 G,2[K:treble] | [G,B,]2 [G,B,]2[K:bass] z4 | z2 G,2 G,,2 G,,2 |[M:2/4] x4 | %13
 x4 |[M:4/4] z4 [C,^F,]2 z2 | x6[K:treble] x2 | [G,D]6 [G,C]2 |[M:2/4][K:bass] x4 | x4 | %19
[M:4/4] z4 [C,^F,]2 z2 | x6[K:treble] x2 | [G,D]6 [G,C]2 | x8 | x8 | z4 [C,C]2 z2 | %25
 [F,B,]2[K:treble] G,2 [G,B,]2 z2 | [G,B,]2 G,2 [G,B,]2[K:bass] z2 | z2 [E,G,]2 [D,A,]2 z2 | x8 | %29
 x8 | z4 [C,C]2 z2 | [F,B,]2[K:treble] G,2 [G,B,]2 z2 | [G,B,]2 G,2 [G,B,]2[K:bass] z2 | %33
 z2 [E,G,]2 [D,A,]2 B,2- |[M:3/4] B,6 |[M:1/4] G,2 |[M:4/4] z4 z2 G,2[K:treble] | x7[K:bass] x | %38
[M:3/4] z2 [C,G,]2 z2 |[M:1/4] [C,G,]2 |[M:4/4] z2 [C,G,]2 z2 G,2[K:treble] | %41
 [G,B,]2 [G,B,]2[K:bass] z4 | z2 G,2 G,,2 G,,2 |[M:6/4] x12 |] %44
V:4
 x8 | x8 | x8 |[M:3/4] x6 |[M:1/4] x2 |[M:4/4] x8 | x8 |[M:3/4] x6 |[M:1/4] x2 |[M:4/4] x8 | x8 | %11
 x4[K:bass] x4 |[M:2/4] x4 | x4 |[M:4/4] z4 z2 G,2 | x8 | z2 ^F2- FBcc |[M:2/4] x4 | x4 | %19
[M:4/4] z4 z2 [=EG]2- | [EG-]4 G2 z2 | z2 ^F2- FBcc | x8 | x8 | x8 | x8 | x8 | CCEE FF z2 | G,8 | %29
 x8 | x8 | x8 | x8 | x8 |[M:3/4] x6 |[M:1/4] x2 |[M:4/4] x8 | x8 |[M:3/4] x6 |[M:1/4] x2 | %40
[M:4/4] x8 | x8 | x4[K:bass] x4 |[M:6/4] x12 |] %44

